img/send.svg

<svg width="16" height="14" viewBox="0 0 16 14" fill="none" xmlns="http://www.w3.org/2000/svg">
<path d="M15.0471 5.59419L2.13792 0.317409C1.59408 0.0950831 0.979671 0.192886 0.534514 0.572521C0.089357 0.952218 -0.0968307 1.53725 0.0486695 2.09928L1.1977 6.53817H6.82352C7.0824 6.53817 7.2923 6.74492 7.2923 6.99997C7.2923 7.25499 7.08243 7.46177 6.82352 7.46177H1.1977L0.0486695 11.9006C-0.0968307 12.4627 0.0893258 13.0477 0.534514 13.4274C0.980577 13.8078 1.59505 13.9044 2.13795 13.6825L15.0472 8.40574C15.6349 8.1655 16 7.62683 16 6.99997C16 6.3731 15.6349 5.8344 15.0471 5.59419Z" fill="white"/>
</svg>

<svg width="16" height="14" fill="none" xmlns="http://www.w3.org/2000/svg"><path d="M15.047 5.594 2.137.317A1.555 1.555 0 0 0 .536.573a1.5 1.5 0 0 0-.486 1.526l1.149 4.44h5.626c.258 0 .468.206.468.461s-.21.462-.468.462H1.198L.048 11.9a1.5 1.5 0 0 0 .487 1.526c.446.38 1.06.477 1.603.255l12.91-5.276c.587-.24.952-.78.952-1.406 0-.627-.365-1.166-.953-1.406Z" fill="#fff"/></svg>
